dist/img/pusets/step-3.svg

<svg width="44" height="58" viewBox="0 0 44 58" fill="none" xmlns="http://www.w3.org/2000/svg">
<path d="M1.15912 9.06173C0.658239 9.06173 0.25293 8.65686 0.25293 8.15553V5.43695C0.25293 4.93563 0.658239 4.53076 1.15912 4.53076C1.66045 4.53076 2.06532 4.93563 2.06532 5.43695V8.15553C2.06532 8.65686 1.66045 9.06173 1.15912 9.06173Z" fill="#D79081"/>
<path d="M1.15826 6.34335C0.732597 6.34335 0.352951 6.04158 0.269323 5.60751C0.175076 5.11724 0.496757 4.64158 0.988791 4.54733L24.5542 0.0163667C25.0419 -0.076111 25.5197 0.244685 25.6157 0.735835C25.71 1.22698 25.3883 1.70176 24.8963 1.79689L1.33038 6.32786C1.27242 6.33804 1.21534 6.34335 1.15826 6.34335Z" fill="#D79081"/>
<path d="M36.5056 1.81239H24.725C24.2237 1.81239 23.8188 1.40752 23.8188 0.906193C23.8188 0.404867 24.2237 0 24.725 0H36.5056C37.0064 0 37.4117 0.404867 37.4117 0.906193C37.4117 1.40752 37.0064 1.81239 36.5056 1.81239Z" fill="#D79081"/>
<path d="M24.7166 9.0619H1.15912C0.658239 9.0619 0.25293 8.65703 0.25293 8.1557C0.25293 7.65438 0.658239 7.24951 1.15912 7.24951H24.7166C25.2179 7.24951 25.6228 7.65438 25.6228 8.1557C25.6228 8.65703 25.2179 9.0619 24.7166 9.0619Z" fill="#D79081"/>
<path d="M1.15912 25.3806C0.658239 25.3806 0.25293 24.9757 0.25293 24.4744V21.7558C0.25293 21.2549 0.658239 20.8496 1.15912 20.8496C1.66045 20.8496 2.06532 21.2549 2.06532 21.7558V24.4744C2.06532 24.9757 1.66045 25.3806 1.15912 25.3806Z" fill="#D79081"/>
<path d="M24.7257 29.9113C24.6686 29.9113 24.6115 29.906 24.554 29.8954L0.988549 25.3644C0.496514 25.2701 0.175718 24.794 0.269081 24.3029C0.364213 23.8117 0.843859 23.4958 1.33014 23.5834L24.896 28.1144C25.3881 28.2086 25.7089 28.6843 25.6155 29.1754C25.531 29.6095 25.1513 29.9113 24.7257 29.9113Z" fill="#D79081"/>
<path d="M24.7166 22.662H1.15912C0.658239 22.662 0.25293 22.2571 0.25293 21.7558C0.25293 21.2549 0.658239 20.8496 1.15912 20.8496H24.7166C25.2179 20.8496 25.6228 21.2549 25.6228 21.7558C25.6228 22.2571 25.2179 22.662 24.7166 22.662Z" fill="#D79081"/>
<path d="M36.5058 6.34512C36.0045 6.34512 35.5996 5.94026 35.5996 5.43893V0.906193C35.5996 0.404867 36.0045 0 36.5058 0C37.0067 0 37.412 0.404867 37.412 0.906193V5.43893C37.412 5.94026 37.0067 6.34512 36.5058 6.34512Z" fill="#D79081"/>
<path d="M42.8491 6.3451H36.5058C36.0045 6.3451 35.5996 5.94024 35.5996 5.43891C35.5996 4.93802 36.0045 4.53271 36.5058 4.53271H42.8491C43.35 4.53271 43.7553 4.93802 43.7553 5.43891C43.7553 5.94024 43.35 6.3451 42.8491 6.3451Z" fill="#D79081"/>
<path d="M39.2241 9.96988C38.7227 9.96988 38.3179 9.56501 38.3179 9.06368C38.3179 8.5628 38.7227 8.15749 39.2241 8.15749C40.7227 8.15749 41.9427 6.93758 41.9427 5.43891C41.9427 4.93802 42.3475 4.53271 42.8489 4.53271C43.3497 4.53271 43.755 4.93802 43.755 5.43891C43.755 7.93714 41.7223 9.96988 39.2241 9.96988Z" fill="#D79081"/>
<path d="M24.7167 57.9999C24.2159 57.9999 23.8105 57.595 23.8105 57.0937V8.1557C23.8105 7.65438 24.2159 7.24951 24.7167 7.24951C25.2181 7.24951 25.6229 7.65438 25.6229 8.1557V57.0937C25.6229 57.595 25.2181 57.9999 24.7167 57.9999Z" fill="#D79081"/>
<path d="M36.5058 58.0001C36.0045 58.0001 35.5996 57.5952 35.5996 57.0939V9.06391C35.5996 8.56302 36.0045 8.15771 36.5058 8.15771C37.0067 8.15771 37.412 8.56302 37.412 9.06391V57.0939C37.412 57.5952 37.0067 58.0001 36.5058 58.0001Z" fill="#D79081"/>
<path d="M39.2244 9.97011H36.5058C36.0045 9.97011 35.5996 9.56524 35.5996 9.06391C35.5996 8.56302 36.0045 8.15771 36.5058 8.15771H39.2244C39.7253 8.15771 40.1306 8.56302 40.1306 9.06391C40.1306 9.56524 39.7253 9.97011 39.2244 9.97011Z" fill="#D79081"/>
<path d="M42.8491 26.287H36.5058C36.0045 26.287 35.5996 25.8821 35.5996 25.3808C35.5996 24.8799 36.0045 24.4746 36.5058 24.4746H42.8491C43.35 24.4746 43.7553 24.8799 43.7553 25.3808C43.7553 25.8821 43.35 26.287 42.8491 26.287Z" fill="#D79081"/>
<path d="M42.8489 26.2868C42.3475 26.2868 41.9427 25.8819 41.9427 25.3806C41.9427 23.8819 40.7227 22.662 39.2241 22.662C38.7227 22.662 38.3179 22.2571 38.3179 21.7558C38.3179 21.2549 38.7227 20.8496 39.2241 20.8496C41.7223 20.8496 43.755 22.8823 43.755 25.3806C43.755 25.8819 43.3497 26.2868 42.8489 26.2868Z" fill="#D79081"/>
<path d="M39.2244 22.662H36.5058C36.0045 22.662 35.5996 22.2571 35.5996 21.7558C35.5996 21.2549 36.0045 20.8496 36.5058 20.8496H39.2244C39.7253 20.8496 40.1306 21.2549 40.1306 21.7558C40.1306 22.2571 39.7253 22.662 39.2244 22.662Z" fill="#D79081"/>
<path d="M27.4437 41.6921H24.7167C24.2159 41.6921 23.8105 41.2872 23.8105 40.7859V21.7558C23.8105 21.2549 24.2159 20.8496 24.7167 20.8496H27.4437C27.9446 20.8496 28.3499 21.2549 28.3499 21.7558V40.7859C28.3499 41.2872 27.9446 41.6921 27.4437 41.6921ZM25.6229 39.8797H26.5375V22.662H25.6229V39.8797Z" fill="#D79081"/>
<path d="M36.5136 41.6919H33.787C33.2857 41.6919 32.8809 41.287 32.8809 40.7857V21.7538C32.8809 21.253 33.2857 20.8477 33.787 20.8477H36.5136C37.0145 20.8477 37.4198 21.253 37.4198 21.7538V40.7857C37.4198 41.287 37.0136 41.6919 36.5136 41.6919ZM34.6932 39.8795H35.6074V22.66H34.6932V39.8795Z" fill="#D79081"/>
<path d="M39.2242 32.6249H36.5136C36.0123 32.6249 35.6074 32.22 35.6074 31.7187C35.6074 31.2178 36.0123 30.8125 36.5136 30.8125H39.2242C39.7251 30.8125 40.1304 31.2178 40.1304 31.7187C40.1304 32.22 39.7251 32.6249 39.2242 32.6249Z" fill="#D79081"/>
<path d="M39.2241 34.4375C38.7227 34.4375 38.3179 34.0327 38.3179 33.5313V29.9101C38.3179 29.4092 38.7227 29.0039 39.2241 29.0039C39.725 29.0039 40.1303 29.4092 40.1303 29.9101V33.5313C40.1303 34.0327 39.725 34.4375 39.2241 34.4375Z" fill="#D79081"/>
<path d="M25.6331 9.06043H24.7167C24.2159 9.06043 23.8105 8.65512 23.8105 8.15424C23.8105 7.65291 24.2159 7.24805 24.7167 7.24805H25.6331C26.134 7.24805 26.5393 7.65291 26.5393 8.15424C26.5393 8.65512 26.134 9.06043 25.6331 9.06043Z" fill="#D79081"/>
<path d="M25.6331 11.7806H24.7167C24.2159 11.7806 23.8105 11.3758 23.8105 10.8745C23.8105 10.3731 24.2159 9.96826 24.7167 9.96826H25.6331C26.134 9.96826 26.5393 10.3731 26.5393 10.8745C26.5393 11.3758 26.134 11.7806 25.6331 11.7806Z" fill="#D79081"/>
<path d="M27.4473 14.4994H24.7167C24.2159 14.4994 23.8105 14.0945 23.8105 13.5932C23.8105 13.0919 24.2159 12.687 24.7167 12.687H27.4473C27.9482 12.687 28.3535 13.0919 28.3535 13.5932C28.3535 14.0945 27.9482 14.4994 27.4473 14.4994Z" fill="#D79081"/>
<path d="M25.6331 17.2196H24.7167C24.2159 17.2196 23.8105 16.8147 23.8105 16.3134C23.8105 15.8125 24.2159 15.4072 24.7167 15.4072H25.6331C26.134 15.4072 26.5393 15.8125 26.5393 16.3134C26.5393 16.8147 26.134 17.2196 25.6331 17.2196Z" fill="#D79081"/>
<path d="M25.6331 19.9398H24.7167C24.2159 19.9398 23.8105 19.535 23.8105 19.0336C23.8105 18.5328 24.2159 18.1274 24.7167 18.1274H25.6331C26.134 18.1274 26.5393 18.5328 26.5393 19.0336C26.5393 19.535 26.134 19.9398 25.6331 19.9398Z" fill="#D79081"/>
<path d="M25.6331 44.4071H24.7167C24.2159 44.4071 23.8105 44.0022 23.8105 43.5009C23.8105 43 24.2159 42.5947 24.7167 42.5947H25.6331C26.134 42.5947 26.5393 43 26.5393 43.5009C26.5393 44.0022 26.134 44.4071 25.6331 44.4071Z" fill="#D79081"/>
<path d="M25.6331 47.1259H24.7167C24.2159 47.1259 23.8105 46.721 23.8105 46.2197C23.8105 45.7188 24.2159 45.3135 24.7167 45.3135H25.6331C26.134 45.3135 26.5393 45.7188 26.5393 46.2197C26.5393 46.721 26.134 47.1259 25.6331 47.1259Z" fill="#D79081"/>
<path d="M27.4473 49.8461H24.7167C24.2159 49.8461 23.8105 49.4412 23.8105 48.9399C23.8105 48.439 24.2159 48.0337 24.7167 48.0337H27.4473C27.9482 48.0337 28.3535 48.439 28.3535 48.9399C28.3535 49.4412 27.9482 49.8461 27.4473 49.8461Z" fill="#D79081"/>
<path d="M25.6331 52.5643H24.7167C24.2159 52.5643 23.8105 52.1595 23.8105 51.6581C23.8105 51.1573 24.2159 50.752 24.7167 50.752H25.6331C26.134 50.752 26.5393 51.1573 26.5393 51.6581C26.5393 52.1595 26.134 52.5643 25.6331 52.5643Z" fill="#D79081"/>
<path d="M25.6331 55.2811H24.7167C24.2159 55.2811 23.8105 54.8763 23.8105 54.3749C23.8105 53.8741 24.2159 53.4688 24.7167 53.4688H25.6331C26.134 53.4688 26.5393 53.8741 26.5393 54.3749C26.5393 54.8763 26.134 55.2811 25.6331 55.2811Z" fill="#D79081"/>
<path d="M27.4473 57.9965H24.7167C24.2159 57.9965 23.8105 57.5916 23.8105 57.0903C23.8105 56.5889 24.2159 56.1841 24.7167 56.1841H27.4473C27.9482 56.1841 28.3535 56.5889 28.3535 57.0903C28.3535 57.5916 27.9482 57.9965 27.4473 57.9965Z" fill="#D79081"/>
<path d="M36.5137 28.0975H35.5995C35.0982 28.0975 34.6934 27.6927 34.6934 27.1913C34.6934 26.6905 35.0982 26.2852 35.5995 26.2852H36.5137C37.0146 26.2852 37.4199 26.6905 37.4199 27.1913C37.4199 27.6927 37.0137 28.0975 36.5137 28.0975Z" fill="#D79081"/>
<path d="M36.5137 32.6249H35.5995C35.0982 32.6249 34.6934 32.22 34.6934 31.7187C34.6934 31.2178 35.0982 30.8125 35.5995 30.8125H36.5137C37.0146 30.8125 37.4199 31.2178 37.4199 31.7187C37.4199 32.22 37.0137 32.6249 36.5137 32.6249Z" fill="#D79081"/>
<path d="M36.5137 37.1542H35.5995C35.0982 37.1542 34.6934 36.7493 34.6934 36.248C34.6934 35.7467 35.0982 35.3418 35.5995 35.3418H36.5137C37.0146 35.3418 37.4199 35.7467 37.4199 36.248C37.4199 36.7493 37.0137 37.1542 36.5137 37.1542Z" fill="#D79081"/>
<path d="M2.97162 11.7789C2.73976 11.7789 2.50791 11.6899 2.33092 11.5134C1.97693 11.1589 1.97693 10.5864 2.33092 10.232L5.04861 7.51338C5.40303 7.15895 5.9756 7.15895 6.33002 7.51338C6.68444 7.8678 6.68444 8.44037 6.33002 8.79479L3.61233 11.5134C3.43578 11.6899 3.20392 11.7789 2.97162 11.7789Z" fill="#D79081"/>
<path d="M12.0383 22.6584C11.7782 22.6584 11.5206 22.5478 11.3406 22.3332L2.27552 11.4536C1.95473 11.0682 2.00738 10.4965 2.3919 10.1766C2.77774 9.85665 3.34765 9.90842 3.66844 10.2925L12.7339 21.1712C13.0547 21.5566 13.0025 22.1283 12.618 22.4482C12.4476 22.5898 12.2428 22.6584 12.0383 22.6584Z" fill="#D79081"/>
<path d="M21.1018 11.7771C20.8695 11.7771 20.6376 11.6881 20.4611 11.5116L17.7434 8.79479C17.3889 8.44037 17.3889 7.8678 17.7434 7.51338C18.0973 7.15895 18.6704 7.15895 19.0248 7.51338L21.7425 10.2302C22.0965 10.5846 22.0965 11.1572 21.7425 11.5116C21.5655 11.6881 21.3336 11.7771 21.1018 11.7771Z" fill="#D79081"/>
<path d="M12.0354 22.6566C11.8309 22.6566 11.6261 22.5875 11.4557 22.4473C11.0712 22.1265 11.0199 21.5557 11.3398 21.1703L20.4053 10.2907C20.7261 9.90659 21.296 9.85571 21.6818 10.1747C22.0663 10.4955 22.1177 11.0663 21.7977 11.4517L12.7332 22.3313C12.5531 22.546 12.2955 22.6566 12.0354 22.6566Z" fill="#D79081"/>
<path d="M21.1021 11.7787H2.97162C2.47074 11.7787 2.06543 11.3734 2.06543 10.8725C2.06543 10.3712 2.47074 9.96631 2.97162 9.96631H21.1021C21.603 9.96631 22.0083 10.3712 22.0083 10.8725C22.0083 11.3734 21.603 11.7787 21.1021 11.7787Z" fill="#D79081"/>
<path d="M12.0371 22.6584C11.5362 22.6584 11.1309 22.2535 11.1309 21.7522V11.7788C11.1309 11.2774 11.5362 10.8726 12.0371 10.8726C12.5384 10.8726 12.9432 11.2774 12.9432 11.7788V21.7522C12.9432 22.2535 12.5384 22.6584 12.0371 22.6584Z" fill="#D79081"/>
</svg>

<svg width="100%" height="100%" viewBox="0 0 44 58" xmlns="http://www.w3.org/2000/svg" fill="none" style="color: inherit;"><path d="M1.159 9.062c-.501 0-.906-.405-.906-.906v-2.719c0-.501.405-.906.906-.906s.906.405.906.906v2.719c0 .501-.405.906-.906.906zM1.158 6.343c-.426 0-.805-.302-.889-.736-.094-.49.227-.966.719-1.06l23.565-4.531c.488-.092.965.228 1.061.719.094.491-.227.966-.719 1.061l-23.566 4.531-.172.015zM36.506 1.812h-11.781c-.501 0-.906-.405-.906-.906s.405-.906.906-.906h11.781c.501 0 .906.405.906.906s-.405.906-.906.906zM24.717 9.062h-23.557c-.501 0-.906-.405-.906-.906s.405-.906.906-.906h23.557c.501 0 .906.405.906.906s-.405.906-.906.906zM1.159 25.381c-.501 0-.906-.405-.906-.906v-2.719c0-.501.405-.906.906-.906s.906.405.906.906v2.719c0 .501-.405.906-.906.906zM24.726 29.911l-.172-.016-23.565-4.531c-.492-.094-.813-.57-.719-1.061.095-.491.575-.807 1.061-.72l23.566 4.531c.492.094.813.57.72 1.061-.085.434-.464.736-.89.736zM24.717 22.662h-23.557c-.501 0-.906-.405-.906-.906s.405-.906.906-.906h23.557c.501 0 .906.405.906.906s-.405.906-.906.906zM36.506 6.345c-.501 0-.906-.405-.906-.906v-4.533c0-.501.405-.906.906-.906s.906.405.906.906v4.533c0 .501-.405.906-.906.906zM42.849 6.345h-6.343c-.501 0-.906-.405-.906-.906s.405-.906.906-.906h6.343c.501 0 .906.405.906.906s-.405.906-.906.906zM39.224 9.97c-.501 0-.906-.405-.906-.906s.405-.906.906-.906c1.499 0 2.719-1.22 2.719-2.719 0-.501.405-.906.906-.906s.906.405.906.906c0 2.498-2.033 4.531-4.531 4.531zM24.717 58c-.501 0-.906-.405-.906-.906v-48.938c0-.501.405-.906.906-.906s.906.405.906.906v48.938c0 .501-.405.906-.906.906zM36.506 58c-.501 0-.906-.405-.906-.906v-48.03c0-.501.405-.906.906-.906s.906.405.906.906v48.03c0 .501-.405.906-.906.906zM39.224 9.97h-2.719c-.501 0-.906-.405-.906-.906s.405-.906.906-.906h2.719c.501 0 .906.405.906.906s-.405.906-.906.906zM42.849 26.287h-6.343c-.501 0-.906-.405-.906-.906s.405-.906.906-.906h6.343c.501 0 .906.405.906.906s-.405.906-.906.906zM42.849 26.287c-.501 0-.906-.405-.906-.906 0-1.499-1.22-2.719-2.719-2.719-.501 0-.906-.405-.906-.906s.405-.906.906-.906c2.498 0 4.531 2.033 4.531 4.531 0 .501-.405.906-.906.906zM39.224 22.662h-2.719c-.501 0-.906-.405-.906-.906s.405-.906.906-.906h2.719c.501 0 .906.405.906.906s-.405.906-.906.906zM27.444 41.692h-2.727c-.501 0-.906-.405-.906-.906v-19.03c0-.501.405-.906.906-.906h2.727c.501 0 .906.405.906.906v19.03c0 .501-.405.906-.906.906zm-1.821-1.812h.915v-17.218h-.915v17.218zM36.514 41.692h-2.727c-.501 0-.906-.405-.906-.906v-19.032c0-.501.405-.906.906-.906h2.727c.501 0 .906.405.906.906v19.032c0 .501-.406.906-.906.906zm-1.82-1.812h.914v-17.22h-.914v17.22zM39.224 32.625h-2.711c-.501 0-.906-.405-.906-.906s.405-.906.906-.906h2.711c.501 0 .906.405.906.906s-.405.906-.906.906zM39.224 34.438c-.501 0-.906-.405-.906-.906v-3.621c0-.501.405-.906.906-.906s.906.405.906.906v3.621c0 .501-.405.906-.906.906zM25.633 9.06h-.916c-.501 0-.906-.405-.906-.906s.405-.906.906-.906h.916c.501 0 .906.405.906.906s-.405.906-.906.906zM25.633 11.781h-.916c-.501 0-.906-.405-.906-.906s.405-.906.906-.906h.916c.501 0 .906.405.906.906s-.405.906-.906.906zM27.447 14.499h-2.731c-.501 0-.906-.405-.906-.906s.405-.906.906-.906h2.731c.501 0 .906.405.906.906s-.405.906-.906.906zM25.633 17.22h-.916c-.501 0-.906-.405-.906-.906s.405-.906.906-.906h.916c.501 0 .906.405.906.906s-.405.906-.906.906zM25.633 19.94h-.916c-.501 0-.906-.405-.906-.906s.405-.906.906-.906h.916c.501 0 .906.405.906.906s-.405.906-.906.906zM25.633 44.407h-.916c-.501 0-.906-.405-.906-.906s.405-.906.906-.906h.916c.501 0 .906.405.906.906s-.405.906-.906.906zM25.633 47.126h-.916c-.501 0-.906-.405-.906-.906s.405-.906.906-.906h.916c.501 0 .906.405.906.906s-.405.906-.906.906zM27.447 49.846h-2.731c-.501 0-.906-.405-.906-.906s.405-.906.906-.906h2.731c.501 0 .906.405.906.906s-.405.906-.906.906zM25.633 52.564h-.916c-.501 0-.906-.405-.906-.906s.405-.906.906-.906h.916c.501 0 .906.405.906.906s-.405.906-.906.906zM25.633 55.281h-.916c-.501 0-.906-.405-.906-.906s.405-.906.906-.906h.916c.501 0 .906.405.906.906s-.405.906-.906.906zM27.447 57.996h-2.731c-.501 0-.906-.405-.906-.906s.405-.906.906-.906h2.731c.501 0 .906.405.906.906s-.405.906-.906.906zM36.514 28.098h-.914c-.501 0-.906-.405-.906-.906s.405-.906.906-.906h.914c.501 0 .906.405.906.906s-.406.906-.906.906zM36.514 32.625h-.914c-.501 0-.906-.405-.906-.906s.405-.906.906-.906h.914c.501 0 .906.405.906.906s-.406.906-.906.906zM36.514 37.154h-.914c-.501 0-.906-.405-.906-.906s.405-.906.906-.906h.914c.501 0 .906.405.906.906s-.406.906-.906.906zM2.972 11.779c-.232 0-.464-.089-.641-.265-.354-.355-.354-.927 0-1.281l2.718-2.719c.354-.354.927-.354 1.281 0 .354.354.354.927 0 1.281l-2.718 2.719c-.177.176-.408.265-.641.265zM12.038 22.658c-.26 0-.518-.111-.698-.325l-9.065-10.88c-.321-.385-.268-.957.116-1.277.386-.32.956-.268 1.277.116l9.065 10.879c.321.385.269.957-.116 1.277-.17.142-.375.21-.58.21zM21.102 11.777c-.232 0-.464-.089-.641-.266l-2.718-2.717c-.355-.354-.355-.927 0-1.281.354-.354.927-.354 1.281 0l2.718 2.717c.354.354.354.927 0 1.281-.177.177-.409.266-.641.266zM12.035 22.657c-.204 0-.409-.069-.58-.209-.385-.321-.436-.892-.116-1.277l9.066-10.88c.321-.384.891-.435 1.276-.116.384.321.436.892.116 1.277l-9.064 10.88c-.18.215-.438.325-.698.325zM21.102 11.779h-18.13c-.501 0-.906-.405-.906-.906s.405-.906.906-.906h18.13c.501 0 .906.405.906.906s-.405.906-.906.906zM12.037 22.658c-.501 0-.906-.405-.906-.906v-9.973c0-.501.405-.906.906-.906s.906.405.906.906v9.973c0 .501-.405.906-.906.906z" fill="currentColor"/></svg>
